public/assets/lut/wagyu_samurai.cube
TITLE "WAGYU SAMURAI Brand LUT"
LUT_3D_SIZE 5
DOMAIN_MIN 0.0 0.0 0.0
DOMAIN_MAX 1.0 1.0 1.0
0.025000 0.008000 0.000000
0.274714 0.016954 0.000000
0.536374 0.026336 0.013158
0.759349 0.034331 0.025436
0.904319 0.039529 0.033418
0.036464 0.191993 0.015249
0.254287 0.201997 0.014724
0.524807 0.216713 0.020098
0.749680 0.225315 0.031237
0.897677 0.231482 0.037403
0.053431 0.432307 0.053431
0.260560 0.432307 0.053431
0.503017 0.453663 0.040785
0.722348 0.471447 0.058569
0.864949 0.483009 0.070131
0.080873 0.654339 0.080873
0.288002 0.654339 0.080873
0.505039 0.654339 0.080873
0.722348 0.683499 0.058569
0.864949 0.695061 0.070131
0.101365 0.820135 0.101365
0.308493 0.820135 0.101365
0.525531 0.820135 0.101365
0.710480 0.820135 0.101365
0.867907 0.854392 0.066186
0.041203 0.025791 0.136398
0.254444 0.035004 0.149805
0.535441 0.026037 0.168770
0.758416 0.034032 0.181048
0.903386 0.039230 0.189030
0.035673 0.191740 0.147182
0.268393 0.213594 0.168381
0.530054 0.222976 0.182789
0.756422 0.232057 0.193031
0.904418 0.238223 0.199197
0.053431 0.432307 0.184889
0.279098 0.450846 0.203428
0.515657 0.466303 0.196680
0.734988 0.484087 0.214464
0.904418 0.491024 0.199197
0.080873 0.654339 0.212331
0.306541 0.672877 0.230870
0.523578 0.672877 0.230870
0.734988 0.696139 0.214464
0.877589 0.707701 0.226026
0.101365 0.820135 0.232823
0.327032 0.838674 0.251362
0.544070 0.838674 0.251362
0.730397 0.839133 0.249525
0.881927 0.867492 0.220243
0.063928 0.050744 0.348737
0.267387 0.049570 0.350939
0.494584 0.063210 0.369288
0.700166 0.087549 0.398641
0.833828 0.103373 0.417725
0.054121 0.212151 0.354622
0.278851 0.233563 0.381189
0.507189 0.247568 0.398853
0.718221 0.273651 0.424936
0.906115 0.239920 0.418359
0.053431 0.432307 0.369261
0.289770 0.461518 0.398472
0.533385 0.484031 0.415327
0.765877 0.494313 0.419951
0.913873 0.500479 0.426117
0.080873 0.654339 0.396703
0.317212 0.683549 0.425914
0.549579 0.698879 0.441244
0.752716 0.713867 0.433111
0.895317 0.725429 0.444673
0.101365 0.820135 0.417195
0.337704 0.849345 0.446406
0.571448 0.865134 0.459899
0.758757 0.865921 0.456754
0.901589 0.885865 0.436311
0.087611 0.076749 0.570024
0.291070 0.075574 0.572226
0.504262 0.074344 0.574533
0.699010 0.087179 0.591476
0.832671 0.103003 0.610560
0.077804 0.238155 0.575909
0.302534 0.259567 0.602476
0.519008 0.259387 0.602814
0.718221 0.273651 0.617078
0.855426 0.290609 0.634036
0.071637 0.450513 0.579609
0.307976 0.479724 0.608819
0.549234 0.503944 0.633040
0.748447 0.518208 0.647304
0.885652 0.535166 0.664262
0.080873 0.654339 0.588845
0.317212 0.683549 0.618055
0.564857 0.714157 0.648663
0.771192 0.732342 0.660971
0.925128 0.740315 0.660730
0.101365 0.820135 0.609337
0.337704 0.849345 0.638547
0.588475 0.880995 0.664987
0.788312 0.893837 0.672715
0.922080 0.905012 0.661484
0.103276 0.093950 0.716397
0.306735 0.092775 0.718599
0.519927 0.091545 0.720906
0.701600 0.090496 0.722872
0.832221 0.102859 0.737924
0.093469 0.255356 0.722281
0.319894 0.277310 0.747831
0.536931 0.277310 0.747831
0.721881 0.277310 0.747831
0.855426 0.290609 0.761129
0.089561 0.468437 0.724626
0.325899 0.497647 0.753837
0.567158 0.521868 0.778057
0.752107 0.521868 0.778057
0.885652 0.535166 0.791356
0.089561 0.663026 0.724626
0.325899 0.692236 0.753837
0.573545 0.722844 0.784444
0.779905 0.744018 0.805025
0.915782 0.758093 0.815215
0.101365 0.820135 0.736431
0.337704 0.849345 0.765641
0.589026 0.881179 0.791347
0.803982 0.908569 0.812197
0.935633 0.917677 0.810427
