public/assets/lut/wagyu_samurai.cube
TITLE "WAGYU SAMURAI Brand LUT"
LUT_3D_SIZE 9
DOMAIN_MIN 0.0 0.0 0.0
DOMAIN_MAX 1.0 1.0 1.0
0.025000 0.008000 0.000000
0.141423 0.012174 0.000000
0.274714 0.016954 0.000000
0.406161 0.021667 0.005988
0.536374 0.026336 0.013158
0.665085 0.030951 0.020245
0.759349 0.034331 0.025436
0.853158 0.037694 0.030601
0.904319 0.039529 0.033418
0.029095 0.073717 0.000000
0.133065 0.079265 0.000000
0.270582 0.084951 0.001229
0.402029 0.089664 0.008467
0.532242 0.094333 0.015637
0.660954 0.098948 0.022724
0.755217 0.102328 0.027914
0.849026 0.105692 0.033080
0.900187 0.107526 0.035897
0.036464 0.191993 0.015249
0.131322 0.191445 0.016276
0.254287 0.201997 0.014724
0.380608 0.211528 0.026994
0.524807 0.216713 0.020098
0.653518 0.221328 0.027185
0.749680 0.225315 0.031237
0.845448 0.229306 0.035227
0.897677 0.231482 0.037403
0.043907 0.311434 0.034886
0.138764 0.310887 0.035913
0.247365 0.310260 0.037088
0.374932 0.326114 0.030400
0.503017 0.336499 0.040785
0.629625 0.346765 0.051051
0.749680 0.351304 0.031237
0.845448 0.355294 0.035227
0.897677 0.357470 0.037403
0.053431 0.432307 0.053431
0.150000 0.432307 0.053431
0.260560 0.432307 0.053431
0.369590 0.432307 0.053431
0.503017 0.453663 0.040785
0.629625 0.463929 0.051051
0.722348 0.471447 0.058569
0.814624 0.478928 0.066051
0.864949 0.483009 0.070131
0.068668 0.555587 0.068668
0.165236 0.555587 0.068668
0.275796 0.555587 0.068668
0.384827 0.555587 0.068668
0.492834 0.555587 0.068668
0.629625 0.581668 0.051051
0.722348 0.589186 0.058569
0.814624 0.596668 0.066051
0.864949 0.600748 0.070131
0.080873 0.654339 0.080873
0.177442 0.654339 0.080873
0.288002 0.654339 0.080873
0.397032 0.654339 0.080873
0.505039 0.654339 0.080873
0.611801 0.654339 0.080873
0.722348 0.683499 0.058569
0.814624 0.690981 0.066051
0.864949 0.695061 0.070131
0.091105 0.737120 0.091105
0.187673 0.737120 0.091105
0.298233 0.737120 0.091105
0.407264 0.737120 0.091105
0.515270 0.737120 0.091105
0.622032 0.737120 0.091105
0.700220 0.737120 0.091105
0.814624 0.770042 0.066051
0.864949 0.774122 0.070131
0.101365 0.820135 0.101365
0.197933 0.820135 0.101365
0.308493 0.820135 0.101365
0.417524 0.820135 0.101365
0.525531 0.820135 0.101365
0.632292 0.820135 0.101365
0.710480 0.820135 0.101365
0.788979 0.820364 0.100447
0.867907 0.854392 0.066186
0.030440 0.013974 0.035834
0.132076 0.020623 0.044624
0.274400 0.016853 0.050999
0.405848 0.021567 0.058237
0.536061 0.026235 0.065407
0.664772 0.030850 0.072494
0.759036 0.034230 0.077685
0.852844 0.037594 0.082850
0.904005 0.039428 0.085667
0.028829 0.073632 0.040103
0.139053 0.082275 0.048515
0.272344 0.087054 0.055855
0.403791 0.091767 0.063093
0.534004 0.096436 0.070263
0.662716 0.101051 0.077350
0.756979 0.104431 0.082540
0.850788 0.107795 0.087706
0.901949 0.109629 0.090523
0.036199 0.191908 0.059548
0.136762 0.197419 0.067110
0.257888 0.206036 0.067454
0.396356 0.214147 0.067554
0.526568 0.218816 0.074724
0.655712 0.223569 0.081552
0.751944 0.227579 0.085561
0.847711 0.231569 0.089552
0.899940 0.233745 0.091728
0.043641 0.311349 0.079184
0.144205 0.316860 0.086747
0.252806 0.316234 0.087922
0.379176 0.330358 0.082744
0.507261 0.340743 0.093129
0.655712 0.349558 0.081552
0.751944 0.353567 0.085561
0.847711 0.357558 0.089552
0.899940 0.359734 0.091728
0.053431 0.432307 0.097570
0.156224 0.438532 0.103795
0.266784 0.438532 0.103795
0.375815 0.438532 0.103795
0.507261 0.457907 0.093129
0.633869 0.468173 0.103395
0.726592 0.475691 0.110913
0.818868 0.483173 0.118395
0.899940 0.486546 0.091728
0.068668 0.555587 0.112807
0.171461 0.561812 0.119032
0.282021 0.561812 0.119032
0.391052 0.561812 0.119032
0.499059 0.561812 0.119032
0.633869 0.585912 0.103395
0.726592 0.593430 0.110913
0.818868 0.600912 0.118395
0.869193 0.604992 0.122475
0.080873 0.654339 0.125012
0.183666 0.660563 0.131237
0.294226 0.660563 0.131237
0.403257 0.660563 0.131237
0.511264 0.660563 0.131237
0.618025 0.660563 0.131237
0.726592 0.687743 0.110913
0.818868 0.695225 0.118395
0.869193 0.699305 0.122475
0.091105 0.737120 0.135244
0.193898 0.743345 0.141468
0.304458 0.743345 0.141468
0.413488 0.743345 0.141468
0.521495 0.743345 0.141468
0.628257 0.743345 0.141468
0.706445 0.743345 0.141468
0.818868 0.774286 0.118395
0.869212 0.778373 0.122450
0.101365 0.820135 0.145504
0.204158 0.826360 0.151729
0.314718 0.826360 0.151729
0.423749 0.826360 0.151729
0.531755 0.826360 0.151729
0.638517 0.826360 0.151729
0.716965 0.826446 0.151382
0.795769 0.826777 0.150058
0.872615 0.858791 0.117913
0.041203 0.025791 0.136398
0.136060 0.025244 0.137425
0.254444 0.035004 0.149805
0.375638 0.049352 0.167109
0.535441 0.026037 0.168770
0.664152 0.030652 0.175857
0.758416 0.034032 0.181048
0.852225 0.037396 0.186213
0.903386 0.039230 0.189030
0.037700 0.083441 0.138500
0.140155 0.090961 0.148229
0.258539 0.100721 0.160609
0.403859 0.092299 0.167244
0.534072 0.096968 0.174414
0.662784 0.101583 0.181501
0.757047 0.104963 0.186691
0.850856 0.108327 0.191857
0.902017 0.110161 0.194674
0.035673 0.191740 0.147182
0.143015 0.204448 0.162508
0.268393 0.213594 0.168381
0.399841 0.218307 0.175619
0.530054 0.222976 0.182789
0.660190 0.228047 0.189021
0.756422 0.232057 0.193031
0.852189 0.236047 0.197021
0.904418 0.238223 0.199197
0.043116 0.311181 0.166818
0.150457 0.323889 0.182144
0.263936 0.328169 0.188265
0.387572 0.338754 0.186295
0.528792 0.348561 0.183546
0.660190 0.354035 0.189021
0.756422 0.358045 0.193031
0.852189 0.362035 0.197021
0.904418 0.364212 0.199197
0.053431 0.432307 0.184889
0.163618 0.445926 0.198507
0.279098 0.450846 0.203428
0.388129 0.450846 0.203428
0.515657 0.466303 0.196680
0.642265 0.476569 0.206946
0.734988 0.484087 0.214464
0.852189 0.488848 0.197021
0.904418 0.491024 0.199197
0.068668 0.555587 0.200126
0.178855 0.569206 0.213744
0.294335 0.574126 0.218665
0.403366 0.574126 0.218665
0.511373 0.574126 0.218665
0.642265 0.594308 0.206946
0.734988 0.601826 0.214464
0.827264 0.609308 0.221946
0.877589 0.613388 0.226026
0.080873 0.654339 0.212331
0.191060 0.667957 0.225950
0.306541 0.672877 0.230870
0.415571 0.672877 0.230870
0.523578 0.672877 0.230870
0.630339 0.672877 0.230870
0.734988 0.696139 0.214464
0.827264 0.703621 0.221946
0.877589 0.707701 0.226026
0.091105 0.737120 0.222562
0.201292 0.750739 0.236181
0.316772 0.755659 0.241101
0.425803 0.755659 0.241101
0.533809 0.755659 0.241101
0.640571 0.755659 0.241101
0.718759 0.755659 0.241101
0.827365 0.782715 0.221812
0.878524 0.787074 0.224779
0.101365 0.820135 0.232823
0.211552 0.833754 0.246441
0.327032 0.838674 0.251362
0.436063 0.838674 0.251362
0.544070 0.838674 0.251362
0.651211 0.838801 0.250855
0.730397 0.839133 0.249525
0.809200 0.839464 0.248202
0.881927 0.867492 0.220243
0.052414 0.038101 0.241148
0.147271 0.037554 0.242174
0.255872 0.036927 0.243350
0.375090 0.049177 0.258391
0.495146 0.063390 0.275532
0.613818 0.077439 0.292476
0.700728 0.087729 0.304885
0.851579 0.037189 0.293879
0.902740 0.039024 0.296696
0.048911 0.095751 0.243250
0.151366 0.103271 0.252979
0.259967 0.102644 0.254154
0.379185 0.114894 0.269195
0.499241 0.129107 0.286336
0.617912 0.143157 0.303280
0.756402 0.104757 0.294357
0.850211 0.108120 0.299522
0.901372 0.109955 0.302340
0.042607 0.199508 0.247032
0.149948 0.212216 0.262358
0.267337 0.220920 0.273599
0.386555 0.233170 0.288640
0.530963 0.224421 0.292236
0.661887 0.229744 0.297996
0.758118 0.233753 0.302006
0.853886 0.237744 0.305996
0.906115 0.239920 0.308172
0.042569 0.311006 0.258100
0.149910 0.323714 0.273426
0.274608 0.338840 0.289890
0.396318 0.347500 0.294157
0.533456 0.353225 0.295489
0.664855 0.358700 0.300964
0.761086 0.362709 0.304973
0.856853 0.366700 0.308964
0.909082 0.368876 0.311140
0.053431 0.432307 0.275842
0.163618 0.445926 0.289461
0.289770 0.461518 0.305053
0.400956 0.463673 0.307208
0.524403 0.475049 0.304542
0.651011 0.485314 0.314807
0.761086 0.489522 0.304973
0.856853 0.493512 0.308964
0.909082 0.495688 0.311140
0.068668 0.555587 0.291079
0.178855 0.569206 0.304698
0.305007 0.584798 0.320290
0.416193 0.586953 0.322445
0.524200 0.586953 0.322445
0.651011 0.603054 0.314807
0.743734 0.610572 0.322325
0.836010 0.618053 0.329807
0.886335 0.622134 0.333888
0.080873 0.654339 0.303284
0.191060 0.667957 0.316903
0.317212 0.683549 0.332495
0.428398 0.685704 0.334650
0.536405 0.685704 0.334650
0.643166 0.685704 0.334650
0.743734 0.704884 0.322325
0.836010 0.712366 0.329807
0.886335 0.716447 0.333888
0.091105 0.737120 0.313516
0.201292 0.750739 0.327134
0.327443 0.766330 0.342726
0.438629 0.768486 0.344881
0.546636 0.768486 0.344881
0.653398 0.768486 0.344881
0.731586 0.768486 0.344881
0.837064 0.791779 0.328401
0.888224 0.796137 0.331369
0.101365 0.820135 0.323776
0.211552 0.833754 0.337395
0.337704 0.849345 0.352986
0.448890 0.851501 0.355142
0.557078 0.851561 0.354899
0.665202 0.852015 0.353083
0.744387 0.852348 0.351754
0.823190 0.852679 0.350430
0.891626 0.876556 0.326832
0.063928 0.050744 0.348737
0.158786 0.050197 0.349764
0.267387 0.049570 0.350939
0.374528 0.048997 0.352147
0.494584 0.063210 0.369288
0.613256 0.077260 0.386232
0.700166 0.087549 0.398641
0.786657 0.097788 0.410990
0.833828 0.103373 0.417725
0.060425 0.108394 0.350839
0.162880 0.115914 0.360568
0.271482 0.115287 0.361744
0.378623 0.114714 0.362951
0.498679 0.128928 0.380093
0.617350 0.142977 0.397036
0.704261 0.153266 0.409445
0.792089 0.163933 0.420993
0.840509 0.169918 0.426977
0.054121 0.212151 0.354622
0.161463 0.224859 0.369948
0.278851 0.233563 0.381189
0.385993 0.232990 0.382396
0.507189 0.247568 0.398853
0.629007 0.262624 0.413910
0.718221 0.273651 0.424936
0.853886 0.237744 0.416183
0.906115 0.239920 0.418359
0.047755 0.316930 0.358441
0.155096 0.329638 0.373767
0.280879 0.345112 0.389581
0.399014 0.354217 0.398686
0.535966 0.355735 0.408186
0.667365 0.361210 0.413661
0.763596 0.365220 0.417670
0.859364 0.369210 0.421661
0.911593 0.371386 0.423837
0.053431 0.432307 0.369261
0.163618 0.445926 0.382880
0.289770 0.461518 0.398472
0.414130 0.476848 0.413802
0.533385 0.484031 0.415327
0.669645 0.490303 0.415941
0.765877 0.494313 0.419951
0.861644 0.498303 0.423941
0.913873 0.500479 0.426117
0.068668 0.555587 0.384498
0.178855 0.569206 0.398117
0.305007 0.584798 0.413709
0.429367 0.600128 0.429038
0.537374 0.600128 0.429038
0.659994 0.612036 0.425593
0.752716 0.619554 0.433111
0.861644 0.625738 0.423941
0.913873 0.627915 0.426117
0.080873 0.654339 0.396703
0.191060 0.667957 0.410322
0.317212 0.683549 0.425914
0.441572 0.698879 0.441244
0.549579 0.698879 0.441244
0.656341 0.698879 0.441244
0.752716 0.713867 0.433111
0.844992 0.721349 0.440593
0.895317 0.725429 0.444673
0.091105 0.737120 0.406935
0.201292 0.750739 0.420553
0.327443 0.766330 0.436145
0.451804 0.781660 0.451475
0.559811 0.781660 0.451475
0.666572 0.781660 0.451475
0.744760 0.781660 0.451475
0.847027 0.801088 0.437880
0.898187 0.805447 0.440847
0.101365 0.820135 0.417195
0.211552 0.833754 0.430814
0.337704 0.849345 0.446406
0.462064 0.864675 0.461735
0.571448 0.865134 0.459899
0.679571 0.865588 0.458084
0.758757 0.865921 0.456754
0.837560 0.866251 0.455430
0.901589 0.885865 0.436311
0.075675 0.063643 0.458498
0.170533 0.063095 0.459525
0.279134 0.062468 0.460700
0.386233 0.061850 0.461859
0.494011 0.063027 0.464937
0.612682 0.077076 0.481880
0.699593 0.087365 0.494289
0.786084 0.097605 0.506638
0.833254 0.103189 0.513373
0.072172 0.121293 0.460600
0.174627 0.128813 0.470329
0.283229 0.128186 0.471504
0.390328 0.127568 0.472663
0.498105 0.128744 0.475741
0.616777 0.142793 0.492685
0.703687 0.153083 0.505094
0.792089 0.163933 0.516297
0.840509 0.169918 0.522281
0.065868 0.225049 0.464382
0.173209 0.237757 0.479708
0.290598 0.246461 0.490949
0.397697 0.245843 0.492108
0.507189 0.247568 0.494158
0.629007 0.262624 0.509214
0.718221 0.273651 0.520240
0.807005 0.284624 0.531214
0.855426 0.290609 0.537198
0.059502 0.329829 0.468202
0.168167 0.342960 0.482733
0.294319 0.358552 0.498325
0.412408 0.367611 0.507384
0.522253 0.369448 0.509221
0.644070 0.384504 0.524278
0.733285 0.395531 0.535304
0.822069 0.406504 0.546277
0.911593 0.371386 0.536247
0.057980 0.436857 0.469115
0.168167 0.450475 0.482733
0.294319 0.466067 0.498325
0.418726 0.481443 0.513701
0.537415 0.492126 0.524384
0.672878 0.493536 0.531584
0.769110 0.497546 0.535594
0.864877 0.501536 0.539584
0.917106 0.503712 0.541760
0.068668 0.555587 0.479802
0.178855 0.569206 0.493421
0.305007 0.584798 0.509013
0.429414 0.600174 0.524389
0.550814 0.613568 0.537783
0.669157 0.621200 0.538614
0.770764 0.626636 0.537248
0.866531 0.630626 0.541238
0.918761 0.632802 0.543415
0.080873 0.654339 0.492008
0.191060 0.667957 0.505626
0.317212 0.683549 0.521218
0.441619 0.698925 0.536594
0.563020 0.712319 0.549988
0.669781 0.712319 0.549988
0.761880 0.723031 0.546132
0.854156 0.730513 0.553614
0.904958 0.734752 0.557059
0.091105 0.737120 0.502239
0.201292 0.750739 0.515858
0.327443 0.766330 0.531449
0.451850 0.781706 0.546826
0.573251 0.795100 0.560220
0.680233 0.795174 0.559926
0.759418 0.795506 0.558596
0.857190 0.810585 0.549568
0.908350 0.814944 0.552535
0.101365 0.820135 0.512499
0.211552 0.833754 0.526118
0.337704 0.849345 0.541710
0.462525 0.864860 0.556533
0.586108 0.878981 0.567018
0.694231 0.879435 0.565202
0.773416 0.879767 0.563873
0.852220 0.880098 0.562549
0.911752 0.895362 0.547999
0.087611 0.076749 0.570024
0.182468 0.076201 0.571051
0.291070 0.075574 0.572226
0.398169 0.074956 0.573385
0.504262 0.074344 0.574533
0.612099 0.076890 0.579067
0.699010 0.087179 0.591476
0.785501 0.097418 0.603825
0.832671 0.103003 0.610560
0.084108 0.134399 0.572126
0.186563 0.141918 0.581855
0.295164 0.141292 0.583030
0.402263 0.140674 0.584189
0.508357 0.140061 0.585338
0.616194 0.142607 0.589872
0.703304 0.152960 0.602161
0.792089 0.163933 0.613134
0.840509 0.169918 0.619119
0.077804 0.238155 0.575909
0.185145 0.250863 0.591235
0.302534 0.259567 0.602476
0.411001 0.259387 0.602814
0.519008 0.259387 0.602814
0.629007 0.262624 0.606051
0.718221 0.273651 0.617078
0.807005 0.284624 0.628051
0.855426 0.290609 0.634036
0.071637 0.342998 0.579609
0.181824 0.356617 0.593227
0.307976 0.372209 0.608819
0.426065 0.381267 0.617878
0.534072 0.381267 0.617878
0.644070 0.384504 0.621115
0.733285 0.395531 0.632141
0.822069 0.406504 0.643115
0.870490 0.412489 0.649099
0.071637 0.450513 0.579609
0.181824 0.464132 0.593227
0.307976 0.479724 0.608819
0.432382 0.495100 0.624195
0.549234 0.503944 0.633040
0.659233 0.507182 0.636277
0.748447 0.518208 0.647304
0.837232 0.529182 0.658277
0.885652 0.535166 0.664262
0.071637 0.558556 0.579609
0.181824 0.572175 0.593227
0.307976 0.587767 0.608819
0.432382 0.603143 0.624195
0.555621 0.618375 0.639427
0.674470 0.630462 0.651514
0.774650 0.630522 0.655353
0.870418 0.634512 0.659343
0.922647 0.636688 0.661520
0.080873 0.654339 0.588845
0.191060 0.667957 0.602464
0.317212 0.683549 0.618055
0.441619 0.698925 0.633432
0.564857 0.714157 0.648663
0.683438 0.725976 0.660482
0.771192 0.732342 0.660971
0.872130 0.737883 0.659579
0.925128 0.740315 0.660730
0.091105 0.737120 0.599076
0.201292 0.750739 0.612695
0.327443 0.766330 0.628287
0.451850 0.781706 0.643663
0.575089 0.796938 0.658895
0.695128 0.809243 0.668768
0.774314 0.809576 0.667438
0.867518 0.820235 0.663053
0.918677 0.824594 0.666020
0.101365 0.820135 0.609337
0.211552 0.833754 0.622955
0.337704 0.849345 0.638547
0.462945 0.865000 0.652811
0.588475 0.880995 0.664987
0.709126 0.893504 0.674044
0.788312 0.893837 0.672715
0.867115 0.894168 0.671391
0.922080 0.905012 0.661484
0.095936 0.085889 0.647808
0.190793 0.085342 0.648835
0.299394 0.084715 0.650010
0.406493 0.084097 0.651169
0.512587 0.083485 0.652317
0.617457 0.082879 0.653452
0.698604 0.087049 0.659259
0.785095 0.097288 0.671609
0.832265 0.102873 0.678343
0.092433 0.143540 0.649910
0.194888 0.151059 0.659639
0.303489 0.150432 0.660815
0.410588 0.149814 0.661974
0.516681 0.149202 0.663122
0.621551 0.148597 0.664257
0.703304 0.152960 0.669700
0.792089 0.163933 0.680673
0.840509 0.169918 0.686658
0.086129 0.247296 0.653693
0.193470 0.260004 0.669019
0.311495 0.268912 0.679878
0.420526 0.268912 0.679878
0.528533 0.268912 0.679878
0.635294 0.268912 0.679878
0.718221 0.273651 0.684617
0.807005 0.284624 0.695590
0.855426 0.290609 0.701575
0.081162 0.352523 0.656673
0.191349 0.366142 0.670291
0.317501 0.381733 0.685883
0.435590 0.390792 0.694942
0.543596 0.390792 0.694942
0.650358 0.390792 0.694942
0.733285 0.395531 0.699681
0.822069 0.406504 0.710654
0.870490 0.412489 0.716639
0.081162 0.460038 0.656673
0.191349 0.473657 0.670291
0.317501 0.489248 0.685883
0.441907 0.504624 0.701259
0.558759 0.513469 0.710104
0.665520 0.513469 0.710104
0.748447 0.518208 0.714843
0.837232 0.529182 0.725816
0.885652 0.535166 0.731801
0.081162 0.568081 0.656673
0.191349 0.581700 0.670291
0.317501 0.597291 0.685883
0.441907 0.612668 0.701259
0.565146 0.627899 0.716491
0.680757 0.636749 0.725341
0.763684 0.641488 0.730080
0.852468 0.652462 0.741053
0.900889 0.658446 0.747038
0.081162 0.654627 0.656673
0.191349 0.668246 0.670291
0.317501 0.683837 0.685883
0.441907 0.699214 0.701259
0.565146 0.714445 0.716491
0.686963 0.729501 0.731547
0.779089 0.737040 0.739453
0.876035 0.741423 0.741871
0.929034 0.743856 0.743022
0.091105 0.737120 0.666616
0.201292 0.750739 0.680234
0.327443 0.766330 0.695826
0.451850 0.781706 0.711202
0.575089 0.796938 0.726434
0.698852 0.812643 0.738895
0.784703 0.819389 0.743350
0.874720 0.826965 0.742203
0.932817 0.830759 0.738222
0.101365 0.820135 0.676876
0.211552 0.833754 0.690495
0.337704 0.849345 0.706086
0.463237 0.865097 0.719960
0.588768 0.881093 0.732136
0.712850 0.896904 0.744172
0.798700 0.903650 0.748627
0.877504 0.903980 0.747303
0.929282 0.911742 0.740634
0.103276 0.093950 0.716397
0.198134 0.093402 0.717423
0.306735 0.092775 0.718599
0.413834 0.092157 0.719758
0.519927 0.091545 0.720906
0.624797 0.090940 0.722041
0.701600 0.090496 0.722872
0.784737 0.097174 0.731378
0.832221 0.102859 0.737924
0.099773 0.151600 0.718498
0.202228 0.159119 0.728228
0.310830 0.158493 0.729403
0.417929 0.157874 0.730562
0.524022 0.157262 0.731710
0.628892 0.156657 0.732845
0.706964 0.156620 0.732914
0.792089 0.163933 0.740228
0.840509 0.169918 0.746213
0.093469 0.255356 0.722281
0.200810 0.268064 0.737607
0.319894 0.277310 0.747831
0.428925 0.277310 0.747831
0.536931 0.277310 0.747831
0.643693 0.277310 0.747831
0.721881 0.277310 0.747831
0.807005 0.284624 0.755145
0.855426 0.290609 0.761129
0.089561 0.360922 0.724626
0.199747 0.374540 0.738245
0.325899 0.390132 0.753837
0.443988 0.399191 0.762895
0.551995 0.399191 0.762895
0.658757 0.399191 0.762895
0.736945 0.399191 0.762895
0.822069 0.406504 0.770209
0.870490 0.412489 0.776193
0.089561 0.468437 0.724626
0.199747 0.482055 0.738245
0.325899 0.497647 0.753837
0.450306 0.513023 0.769213
0.567158 0.521868 0.778057
0.673919 0.521868 0.778057
0.752107 0.521868 0.778057
0.837232 0.529182 0.785371
0.885652 0.535166 0.791356
0.089561 0.576480 0.724626
0.199747 0.590098 0.738245
0.325899 0.605690 0.753837
0.450306 0.621066 0.769213
0.573545 0.636298 0.784444
0.689156 0.645148 0.793294
0.767344 0.645148 0.793294
0.852468 0.652462 0.800608
0.900889 0.658446 0.806593
0.089561 0.663026 0.724626
0.199747 0.676644 0.738245
0.325899 0.692236 0.753837
0.450306 0.707612 0.769213
0.573545 0.722844 0.784444
0.695362 0.737900 0.799501
0.779905 0.744018 0.805025
0.866461 0.751808 0.810431
0.915782 0.758093 0.815215
0.091105 0.737120 0.726170
0.201292 0.750739 0.739789
0.327443 0.766330 0.755381
0.451850 0.781706 0.770757
0.575089 0.796938 0.785989
0.699110 0.812729 0.798106
0.789984 0.824309 0.806920
0.883360 0.831543 0.809719
0.936359 0.833975 0.810870
0.101365 0.820135 0.736431
0.211552 0.833754 0.750049
0.337704 0.849345 0.765641
0.463495 0.865183 0.779171
0.589026 0.881179 0.791347
0.713108 0.896990 0.803383
0.803982 0.908569 0.812197
0.886665 0.912633 0.814241
0.935633 0.917677 0.810427
