public/assets/lut/wagyu_samurai.cube
TITLE "WAGYU SAMURAI Brand LUT"
LUT_3D_SIZE 33
DOMAIN_MIN 0.0 0.0 0.0
DOMAIN_MAX 1.0 1.0 1.0
0.025000 0.008000 0.000000
0.039263 0.008511 0.000000
0.073641 0.009744 0.000000
0.107663 0.010964 0.000000
0.141423 0.012174 0.000000
0.174977 0.013378 0.000000
0.208361 0.014575 0.000000
0.241600 0.015766 0.000000
0.274714 0.016954 0.000000
0.307716 0.018137 0.000567
0.340619 0.019317 0.002379
0.373431 0.020493 0.004186
0.406161 0.021667 0.005988
0.438815 0.022838 0.007786
0.471399 0.024006 0.009580
0.503917 0.025172 0.011371
0.536374 0.026336 0.013158
0.568773 0.027497 0.014942
0.601119 0.028657 0.016723
0.633413 0.029815 0.018501
0.665085 0.030951 0.020245
0.688698 0.031797 0.021545
0.712279 0.032643 0.022844
0.735829 0.033487 0.024140
0.759349 0.034331 0.025436
0.782841 0.035173 0.026729
0.806306 0.036014 0.028021
0.829744 0.036855 0.029312
0.853158 0.037694 0.030601
0.876547 0.038533 0.031889
0.899913 0.039371 0.033175
0.904319 0.039529 0.033418
0.904319 0.039529 0.033418
0.025000 0.008000 0.000000
0.039263 0.008511 0.000000
0.073641 0.009744 0.000000
0.107663 0.010964 0.000000
0.141423 0.012174 0.000000
0.174977 0.013378 0.000000
0.208361 0.014575 0.000000
0.241600 0.015766 0.000000
0.274714 0.016954 0.000000
0.307716 0.018137 0.000567
0.340619 0.019317 0.002379
0.373431 0.020493 0.004186
0.406161 0.021667 0.005988
0.438815 0.022838 0.007786
0.471399 0.024006 0.009580
0.503917 0.025172 0.011371
0.536374 0.026336 0.013158
0.568773 0.027497 0.014942
0.601119 0.028657 0.016723
0.633413 0.029815 0.018501
0.665085 0.030951 0.020245
0.688698 0.031797 0.021545
0.712279 0.032643 0.022844
0.735829 0.033487 0.024140
0.759349 0.034331 0.025436
0.782841 0.035173 0.026729
0.806306 0.036014 0.028021
0.829744 0.036855 0.029312
0.853158 0.037694 0.030601
0.876547 0.038533 0.031889
0.899913 0.039371 0.033175
0.904319 0.039529 0.033418
0.904319 0.039529 0.033418
0.025455 0.015306 0.000000
0.038282 0.016019 0.000000
0.073182 0.017304 0.000000
0.107203 0.018524 0.000000
0.140963 0.019734 0.000000
0.174517 0.020937 0.000000
0.207901 0.022134 0.000000
0.241141 0.023326 0.000000
0.274254 0.024514 0.000000
0.307257 0.025697 0.000843
0.340159 0.026877 0.002655
0.372972 0.028053 0.004461
0.405702 0.029227 0.006264
0.438356 0.030398 0.008062
0.470939 0.031566 0.009856
0.503458 0.032732 0.011646
0.535915 0.033896 0.013433
0.568314 0.035057 0.015217
0.600659 0.036217 0.016999
0.632954 0.037375 0.018777
0.664626 0.038511 0.020521
0.688239 0.039357 0.021821
0.711819 0.040203 0.023119
0.735369 0.041047 0.024416
0.758889 0.041891 0.025711
0.782381 0.042733 0.027005
0.805846 0.043574 0.028297
0.829285 0.044415 0.029587
0.852698 0.045254 0.030877
0.876088 0.046093 0.032164
0.899453 0.046931 0.033451
0.903859 0.047089 0.033694
0.903859 0.047089 0.033694
0.027270 0.044427 0.000000
0.038890 0.044360 0.000000
0.069628 0.046350 0.000000
0.105372 0.048655 0.000000
0.139133 0.049865 0.000000
0.172687 0.051068 0.000000
0.206071 0.052265 0.000000
0.239310 0.053457 0.000000
0.272424 0.054645 0.000124
0.305426 0.055828 0.001941
0.338329 0.057008 0.003753
0.371141 0.058184 0.005560
0.403871 0.059358 0.007362
0.436525 0.060528 0.009160
0.469109 0.061697 0.010954
0.501627 0.062863 0.012745
0.534084 0.064027 0.014532
0.566483 0.065188 0.016316
0.598829 0.066348 0.018097
0.631123 0.067506 0.019875
0.662795 0.068642 0.021619
0.686408 0.069488 0.022919
0.709989 0.070334 0.024218
0.733539 0.071178 0.025515
0.757059 0.072021 0.026810
0.780551 0.072864 0.028103
0.804015 0.073705 0.029395
0.827454 0.074546 0.030686
0.850868 0.075385 0.031975
0.874257 0.076224 0.033263
0.897623 0.077061 0.034549
0.902029 0.077219 0.034792
0.902029 0.077219 0.034792
0.029095 0.073717 0.000000
0.040715 0.073650 0.000000
0.068726 0.073489 0.000000
0.100621 0.076817 0.000000
0.133065 0.079265 0.000000
0.170845 0.081375 0.000000
0.204229 0.082572 0.000000
0.237469 0.083764 0.000000
0.270582 0.084951 0.001229
0.303585 0.086134 0.003046
0.336487 0.087314 0.004858
0.369300 0.088491 0.006665
0.402029 0.089664 0.008467
0.434683 0.090835 0.010265
0.467267 0.092003 0.012059
0.499785 0.093169 0.013850
0.532242 0.094333 0.015637
0.564642 0.095495 0.017421
0.596987 0.096655 0.019202
0.629281 0.097813 0.020980
0.660954 0.098948 0.022724
0.684567 0.099795 0.024024
0.708147 0.100640 0.025323
0.731697 0.101485 0.026619
0.755217 0.102328 0.027914
0.778709 0.103170 0.029208
0.802174 0.104012 0.030500
0.825613 0.104852 0.031791
0.849026 0.105692 0.033080
0.872415 0.106530 0.034368
0.895781 0.107368 0.035654
0.900187 0.107526 0.035897
0.900187 0.107526 0.035897
0.030928 0.103140 0.000641
0.042549 0.103072 0.000767
0.070559 0.102911 0.001070
0.098279 0.102751 0.001370
0.131356 0.107392 0.000000
0.163601 0.109825 0.002316
0.195683 0.112245 0.005433
0.235619 0.114207 0.000515
0.268733 0.115394 0.002339
0.301735 0.116578 0.004156
0.334638 0.117757 0.005968
0.367450 0.118934 0.007774
0.400180 0.120107 0.009577
0.432834 0.121278 0.011375
0.465417 0.122447 0.013169
0.497936 0.123613 0.014959
0.530393 0.124776 0.016747
0.562792 0.125938 0.018531
0.595138 0.127098 0.020312
0.627432 0.128256 0.022090
0.659104 0.129391 0.023834
0.682717 0.130238 0.025134
0.706298 0.131084 0.026432
0.729847 0.131928 0.027729
0.753368 0.132771 0.029024
0.776860 0.133614 0.030318
0.800324 0.134455 0.031610
0.823763 0.135295 0.032900
0.847176 0.136135 0.034190
0.870566 0.136973 0.035478
0.893931 0.137811 0.036764
0.898338 0.137969 0.037007
0.898338 0.137969 0.037007
0.032768 0.132670 0.005496
0.044389 0.132603 0.005622
0.072399 0.132441 0.005925
0.100119 0.132281 0.006225
0.127625 0.132122 0.006523
0.161886 0.138055 0.003345
0.193968 0.140475 0.006462
0.225911 0.142885 0.009565
0.257733 0.145286 0.012656
0.299878 0.147133 0.005270
0.332781 0.148312 0.007082
0.365593 0.149489 0.008888
0.398323 0.150662 0.010690
0.430977 0.151833 0.012489
0.463561 0.153002 0.014283
0.496079 0.154168 0.016073
0.528536 0.155331 0.017860
0.560936 0.156493 0.019644
0.593281 0.157653 0.021425
0.625575 0.158811 0.023204
0.657248 0.159946 0.024948
0.680861 0.160793 0.026248
0.704441 0.161638 0.027546
0.727991 0.162483 0.028843
0.751511 0.163326 0.030138
0.775003 0.164169 0.031432
0.798468 0.165010 0.032724
0.821907 0.165850 0.034014
0.845448 0.166731 0.035227
0.869325 0.167726 0.036222
0.893179 0.168719 0.037216
0.897677 0.168907 0.037403
0.897677 0.168907 0.037403
0.034614 0.162292 0.010366
0.046234 0.162225 0.010492
0.074245 0.162063 0.010795
0.101965 0.161903 0.011095
0.129471 0.161744 0.011393
0.156810 0.161586 0.011689
0.192247 0.168793 0.007494
0.224190 0.171203 0.010597
0.256012 0.173604 0.013688
0.287728 0.175997 0.016769
0.319347 0.178382 0.019841
0.363731 0.180139 0.010006
0.396461 0.181312 0.011808
0.429115 0.182483 0.013606
0.461699 0.183651 0.015400
0.494217 0.184817 0.017191
0.526674 0.185981 0.018978
0.559074 0.187143 0.020762
0.591419 0.188302 0.022543
0.623713 0.189460 0.024321
0.655386 0.190596 0.026065
0.678998 0.191443 0.027365
0.702579 0.192288 0.028664
0.726129 0.193133 0.029960
0.749680 0.193986 0.031237
0.773663 0.194985 0.032236
0.797617 0.195983 0.033234
0.821545 0.196980 0.034231
0.845448 0.197976 0.035227
0.869325 0.198971 0.036222
0.893179 0.199965 0.037216
0.897677 0.200152 0.037403
0.897677 0.200152 0.037403
0.036464 0.191993 0.015249
0.048085 0.191926 0.015375
0.076096 0.191764 0.015678
0.103815 0.191604 0.015978
0.131322 0.191445 0.016276
0.158661 0.191288 0.016572
0.185861 0.191131 0.016866
0.222465 0.199596 0.011632
0.254287 0.201997 0.014724
0.286002 0.204390 0.017804
0.317622 0.206776 0.020876
0.349154 0.209155 0.023939
0.380608 0.211528 0.026994
0.427248 0.213215 0.014726
0.459832 0.214383 0.016520
0.492350 0.215549 0.018311
0.524807 0.216713 0.020098
0.557206 0.217875 0.021882
0.589552 0.219034 0.023663
0.621846 0.220192 0.025441
0.653518 0.221328 0.027185
0.677555 0.222310 0.028231
0.701628 0.223313 0.029234
0.725669 0.224315 0.030236
0.749680 0.225315 0.031237
0.773663 0.226315 0.032236
0.797617 0.227313 0.033234
0.821545 0.228310 0.034231
0.845448 0.229306 0.035227
0.869325 0.230300 0.036222
0.893179 0.231294 0.037216
0.897677 0.231482 0.037403
0.897677 0.231482 0.037403
0.038319 0.221764 0.020144
0.049940 0.221697 0.020270
0.077951 0.221536 0.020573
0.105670 0.221376 0.020873
0.133177 0.221217 0.021171
0.160516 0.221059 0.021466
0.187716 0.220902 0.021761
0.214798 0.220746 0.022054
0.252558 0.230458 0.015761
0.284273 0.232851 0.018842
0.315893 0.235236 0.021913
0.347425 0.237616 0.024977
0.378879 0.239989 0.028032
0.410259 0.242356 0.031080
0.441572 0.244719 0.034122
0.490478 0.246354 0.019434
0.522935 0.247517 0.021221
0.555335 0.248679 0.023005
0.588147 0.249988 0.024506
0.621115 0.251362 0.025880
0.653449 0.252709 0.027227
0.677555 0.253714 0.028231
0.701628 0.254717 0.029234
0.725669 0.255718 0.030236
0.749680 0.256719 0.031237
0.773663 0.257718 0.032236
0.797617 0.258716 0.033234
0.821545 0.259713 0.034231
0.845448 0.260709 0.035227
0.869325 0.261704 0.036222
0.893179 0.262698 0.037216
0.897677 0.262885 0.037403
0.897677 0.262885 0.037403
0.040178 0.251599 0.025049
0.051799 0.251532 0.025175
0.079810 0.251370 0.025478
0.107529 0.251210 0.025778
0.135036 0.251051 0.026075
0.162375 0.250894 0.026371
0.189575 0.250737 0.026666
0.216657 0.250580 0.026959
0.243637 0.250425 0.027251
0.282540 0.261372 0.019882
0.314160 0.263757 0.022953
0.345692 0.266136 0.026016
0.377146 0.268510 0.029072
0.408526 0.270877 0.032120
0.439839 0.273240 0.035162
0.471090 0.275598 0.038197
0.503017 0.278186 0.040785
0.555126 0.280082 0.023130
0.588147 0.281458 0.024506
0.621115 0.282832 0.025880
0.653449 0.284179 0.027227
0.677555 0.285183 0.028231
0.701628 0.286186 0.029234
0.725669 0.287188 0.030236
0.749680 0.288189 0.031237
0.773663 0.289188 0.032236
0.797617 0.290186 0.033234
0.821545 0.291183 0.034231
0.845448 0.292179 0.035227
0.869325 0.293174 0.036222
0.893179 0.294168 0.037216
0.897677 0.294355 0.037403
0.897677 0.294355 0.037403
0.042041 0.281490 0.029963
0.053662 0.281423 0.030089
0.081672 0.281262 0.030392
0.109392 0.281102 0.030692
0.136898 0.280943 0.030990
0.164237 0.280785 0.031286
0.191437 0.280628 0.031580
0.218520 0.280472 0.031873
0.245500 0.280316 0.032165
0.272389 0.280161 0.032456
0.312424 0.292333 0.023995
0.343956 0.294712 0.027058
0.375409 0.297085 0.030113
0.407052 0.299537 0.033004
0.439104 0.302135 0.035603
0.471090 0.304729 0.038197
0.503017 0.307317 0.040785
0.534887 0.309902 0.043369
0.566704 0.312481 0.045949
0.621115 0.314362 0.025880
0.653449 0.315709 0.027227
0.677555 0.316713 0.028231
0.701628 0.317716 0.029234
0.725669 0.318718 0.030236
0.749680 0.319719 0.031237
0.773663 0.320718 0.032236
0.797617 0.321716 0.033234
0.821545 0.322713 0.034231
0.845448 0.323709 0.035227
0.869325 0.324704 0.036222
0.893179 0.325698 0.037216
0.897677 0.325885 0.037403
0.897677 0.325885 0.037403
0.043907 0.311434 0.034886
0.055527 0.311367 0.035012
0.083538 0.311205 0.035315
0.111257 0.311045 0.035615
0.138764 0.310887 0.035913
0.166103 0.310729 0.036209
0.193303 0.310572 0.036503
0.220385 0.310416 0.036796
0.247365 0.310260 0.037088
0.274255 0.310105 0.037379
0.301063 0.309950 0.037669
0.342737 0.323504 0.027789
0.374932 0.326114 0.030400
0.407052 0.328718 0.033004
0.439104 0.331317 0.035603
0.471090 0.333911 0.038197
0.503017 0.336499 0.040785
0.534887 0.339083 0.043369
0.566704 0.341663 0.045949
0.598470 0.344239 0.048525
0.629625 0.346765 0.051051
0.677555 0.348298 0.028231
0.701628 0.349302 0.029234
0.725669 0.350303 0.030236
0.749680 0.351304 0.031237
0.773663 0.352303 0.032236
0.797617 0.353301 0.033234
0.821545 0.354298 0.034231
0.845448 0.355294 0.035227
0.869325 0.356289 0.036222
0.893179 0.357283 0.037216
0.897677 0.357470 0.037403
0.897677 0.357470 0.037403
0.045775 0.341426 0.039817
0.057396 0.341359 0.039943
0.085407 0.341197 0.040246
0.113126 0.341037 0.040546
0.140633 0.340878 0.040844
0.167972 0.340721 0.041139
0.195172 0.340564 0.041434
0.222254 0.340407 0.041727
0.249234 0.340252 0.042019
0.276554 0.340234 0.042051
0.303845 0.340234 0.042051
0.331062 0.340234 0.042051
0.374932 0.355343 0.030400
0.407052 0.357947 0.033004
0.439104 0.360546 0.035603
0.471090 0.363139 0.038197
0.503017 0.365728 0.040785
0.534887 0.368312 0.043369
0.566704 0.370892 0.045949
0.598470 0.373467 0.048525
0.629625 0.375993 0.051051
0.652852 0.377877 0.052934
0.676047 0.379757 0.054815
0.699212 0.381636 0.056693
0.749680 0.382939 0.031237
0.773663 0.383939 0.032236
0.797617 0.384937 0.033234
0.821545 0.385934 0.034231
0.845448 0.386930 0.035227
0.869325 0.387925 0.036222
0.893179 0.388919 0.037216
0.897677 0.389106 0.037403
0.897677 0.389106 0.037403
0.047647 0.371462 0.044755
0.059268 0.371395 0.044881
0.087278 0.371233 0.045184
0.114998 0.371073 0.045484
0.142504 0.370915 0.045782
0.170240 0.370884 0.045840
0.197931 0.370884 0.045840
0.225501 0.370884 0.045840
0.252968 0.370884 0.045840
0.280342 0.370884 0.045840
0.307634 0.370884 0.045840
0.334850 0.370884 0.045840
0.361999 0.370884 0.045840
0.407052 0.387219 0.033004
0.439104 0.389818 0.035603
0.471090 0.392411 0.038197
0.503017 0.395000 0.040785
0.534887 0.397584 0.043369
0.566704 0.400164 0.045949
0.598470 0.402739 0.048525
0.629625 0.405266 0.051051
0.652852 0.407149 0.052934
0.676047 0.409030 0.054815
0.699212 0.410908 0.056693
0.722348 0.412784 0.058569
0.745456 0.414657 0.060442
0.768538 0.416529 0.062314
0.821545 0.417617 0.034231
0.845448 0.418612 0.035227
0.869325 0.419607 0.036222
0.893179 0.420601 0.037216
0.897677 0.420789 0.037403
0.897677 0.420789 0.037403
0.049633 0.401576 0.049633
0.061463 0.401576 0.049633
0.089979 0.401576 0.049633
0.118198 0.401576 0.049633
0.146201 0.401576 0.049633
0.174033 0.401576 0.049633
0.201724 0.401576 0.049633
0.229295 0.401576 0.049633
0.256761 0.401576 0.049633
0.284135 0.401576 0.049633
0.311427 0.401576 0.049633
0.338644 0.401576 0.049633
0.365792 0.401576 0.049633
0.392877 0.401576 0.049633
0.439104 0.419130 0.035603
0.471090 0.421724 0.038197
0.503017 0.424313 0.040785
0.534887 0.426897 0.043369
0.566704 0.429476 0.045949
0.598470 0.432052 0.048525
0.629625 0.434578 0.051051
0.652852 0.436461 0.052934
0.676047 0.438342 0.054815
0.699212 0.440220 0.056693
0.722348 0.442096 0.058569
0.745456 0.443970 0.060442
0.768538 0.445841 0.062314
0.791593 0.447711 0.064183
0.814624 0.449578 0.066051
0.869325 0.451334 0.036222
0.893179 0.452328 0.037216
0.897677 0.452515 0.037403
0.897677 0.452515 0.037403
0.053431 0.432307 0.053431
0.065261 0.432307 0.053431
0.093777 0.432307 0.053431
0.121997 0.432307 0.053431
0.150000 0.432307 0.053431
0.177831 0.432307 0.053431
0.205522 0.432307 0.053431
0.233093 0.432307 0.053431
0.260560 0.432307 0.053431
0.287934 0.432307 0.053431
0.315225 0.432307 0.053431
0.342442 0.432307 0.053431
0.369590 0.432307 0.053431
0.396675 0.432307 0.053431
0.423702 0.432307 0.053431
0.471090 0.451074 0.038197
0.503017 0.453663 0.040785
0.534887 0.456247 0.043369
0.566704 0.458827 0.045949
0.598470 0.461402 0.048525
0.629625 0.463929 0.051051
0.652852 0.465812 0.052934
0.676047 0.467692 0.054815
0.699212 0.469571 0.056693
0.722348 0.471447 0.058569
0.745456 0.473320 0.060442
0.768538 0.475192 0.062314
0.791593 0.477061 0.064183
0.814624 0.478928 0.066051
0.837631 0.480794 0.067916
0.860615 0.482657 0.069780
0.864949 0.483009 0.070131
0.864949 0.483009 0.070131
0.057234 0.463076 0.057234
0.069064 0.463076 0.057234
0.097580 0.463076 0.057234
0.125800 0.463076 0.057234
0.153802 0.463076 0.057234
0.181634 0.463076 0.057234
0.209325 0.463076 0.057234
0.236896 0.463076 0.057234
0.264362 0.463076 0.057234
0.291737 0.463076 0.057234
0.319028 0.463076 0.057234
0.346245 0.463076 0.057234
0.373393 0.463076 0.057234
0.400478 0.463076 0.057234
0.427505 0.463076 0.057234
0.454478 0.463076 0.057234
0.503017 0.483049 0.040785
0.534887 0.485633 0.043369
0.566704 0.488213 0.045949
0.598470 0.490789 0.048525
0.629625 0.493315 0.051051
0.652852 0.495198 0.052934
0.676047 0.497079 0.054815
0.699212 0.498957 0.056693
0.722348 0.500833 0.058569
0.745456 0.502706 0.060442
0.768538 0.504578 0.062314
0.791593 0.506447 0.064183
0.814624 0.508315 0.066051
0.837631 0.510180 0.067916
0.860615 0.512044 0.069780
0.864949 0.512395 0.070131
0.864949 0.512395 0.070131
0.061041 0.493881 0.061041
0.072872 0.493881 0.061041
0.101387 0.493881 0.061041
0.129607 0.493881 0.061041
0.157610 0.493881 0.061041
0.185442 0.493881 0.061041
0.213132 0.493881 0.061041
0.240703 0.493881 0.061041
0.268170 0.493881 0.061041
0.295544 0.493881 0.061041
0.322835 0.493881 0.061041
0.350052 0.493881 0.061041
0.377200 0.493881 0.061041
0.404286 0.493881 0.061041
0.431313 0.493881 0.061041
0.458285 0.493881 0.061041
0.485207 0.493881 0.061041
0.534887 0.515053 0.043369
0.566704 0.517633 0.045949
0.598470 0.520208 0.048525
0.629625 0.522734 0.051051
0.652852 0.524618 0.052934
0.676047 0.526498 0.054815
0.699212 0.528377 0.056693
0.722348 0.530252 0.058569
0.745456 0.532126 0.060442
0.768538 0.533998 0.062314
0.791593 0.535867 0.064183
0.814624 0.537734 0.066051
0.837631 0.539600 0.067916
0.860615 0.541463 0.069780
0.864949 0.541815 0.070131
0.864949 0.541815 0.070131
0.064853 0.524718 0.064853
0.076683 0.524718 0.064853
0.105199 0.524718 0.064853
0.133418 0.524718 0.064853
0.161421 0.524718 0.064853
0.189253 0.524718 0.064853
0.216944 0.524718 0.064853
0.244515 0.524718 0.064853
0.271981 0.524718 0.064853
0.299355 0.524718 0.064853
0.326647 0.524718 0.064853
0.353864 0.524718 0.064853
0.381012 0.524718 0.064853
0.408097 0.524718 0.064853
0.435124 0.524718 0.064853
0.462097 0.524718 0.064853
0.489019 0.524718 0.064853
0.515893 0.524718 0.064853
0.566704 0.547084 0.045949
0.598470 0.549660 0.048525
0.629625 0.552186 0.051051
0.652852 0.554069 0.052934
0.676047 0.555950 0.054815
0.699212 0.557828 0.056693
0.722348 0.559704 0.058569
0.745456 0.561578 0.060442
0.768538 0.563449 0.062314
0.791593 0.565319 0.064183
0.814624 0.567186 0.066051
0.837631 0.569051 0.067916
0.860615 0.570915 0.069780
0.864949 0.571266 0.070131
0.864949 0.571266 0.070131
0.068668 0.555587 0.068668
0.080498 0.555587 0.068668
0.109014 0.555587 0.068668
0.137234 0.555587 0.068668
0.165236 0.555587 0.068668
0.193068 0.555587 0.068668
0.220759 0.555587 0.068668
0.248330 0.555587 0.068668
0.275796 0.555587 0.068668
0.303171 0.555587 0.068668
0.330462 0.555587 0.068668
0.357679 0.555587 0.068668
0.384827 0.555587 0.068668
0.411912 0.555587 0.068668
0.438939 0.555587 0.068668
0.465912 0.555587 0.068668
0.492834 0.555587 0.068668
0.519708 0.555587 0.068668
0.546537 0.555587 0.068668
0.598470 0.579142 0.048525
0.629625 0.581668 0.051051
0.652852 0.583551 0.052934
0.676047 0.585432 0.054815
0.699212 0.587310 0.056693
0.722348 0.589186 0.058569
0.745456 0.591060 0.060442
0.768538 0.592931 0.062314
0.791593 0.594800 0.064183
0.814624 0.596668 0.066051
0.837631 0.598533 0.067916
0.860615 0.600397 0.069780
0.864949 0.600748 0.070131
0.864949 0.600748 0.070131
0.072487 0.586487 0.072487
0.084317 0.586487 0.072487
0.112833 0.586487 0.072487
0.141053 0.586487 0.072487
0.169055 0.586487 0.072487
0.196887 0.586487 0.072487
0.224578 0.586487 0.072487
0.252149 0.586487 0.072487
0.279615 0.586487 0.072487
0.306990 0.586487 0.072487
0.334281 0.586487 0.072487
0.361498 0.586487 0.072487
0.388646 0.586487 0.072487
0.415731 0.586487 0.072487
0.442758 0.586487 0.072487
0.469731 0.586487 0.072487
0.496653 0.586487 0.072487
0.523527 0.586487 0.072487
0.550356 0.586487 0.072487
0.577143 0.586487 0.072487
0.629625 0.611179 0.051051
0.652852 0.613062 0.052934
0.676047 0.614942 0.054815
0.699212 0.616821 0.056693
0.722348 0.618697 0.058569
0.745456 0.620570 0.060442
0.768538 0.622442 0.062314
0.791593 0.624311 0.064183
0.814624 0.626178 0.066051
0.837631 0.628044 0.067916
0.860615 0.629907 0.069780
0.864949 0.630259 0.070131
0.864949 0.630259 0.070131
0.075770 0.613047 0.075770
0.087600 0.613047 0.075770
0.116116 0.613047 0.075770
0.144335 0.613047 0.075770
0.172338 0.613047 0.075770
0.200170 0.613047 0.075770
0.227861 0.613047 0.075770
0.255432 0.613047 0.075770
0.282898 0.613047 0.075770
0.310272 0.613047 0.075770
0.337564 0.613047 0.075770
0.364781 0.613047 0.075770
0.391929 0.613047 0.075770
0.419014 0.613047 0.075770
0.446041 0.613047 0.075770
0.473014 0.613047 0.075770
0.499936 0.613047 0.075770
0.526810 0.613047 0.075770
0.553639 0.613047 0.075770
0.580426 0.613047 0.075770
0.606697 0.613047 0.075770
0.652852 0.638428 0.052934
0.676047 0.640309 0.054815
0.699212 0.642187 0.056693
0.722348 0.644063 0.058569
0.745456 0.645936 0.060442
0.768538 0.647808 0.062314
0.791593 0.649677 0.064183
0.814624 0.651545 0.066051
0.837631 0.653410 0.067916
0.860615 0.655274 0.069780
0.864949 0.655625 0.070131
0.864949 0.655625 0.070131
0.078320 0.633684 0.078320
0.090151 0.633684 0.078320
0.118666 0.633684 0.078320
0.146886 0.633684 0.078320
0.174889 0.633684 0.078320
0.202721 0.633684 0.078320
0.230411 0.633684 0.078320
0.257982 0.633684 0.078320
0.285449 0.633684 0.078320
0.312823 0.633684 0.078320
0.340115 0.633684 0.078320
0.367331 0.633684 0.078320
0.394479 0.633684 0.078320
0.421565 0.633684 0.078320
0.448592 0.633684 0.078320
0.475564 0.633684 0.078320
0.502486 0.633684 0.078320
0.529360 0.633684 0.078320
0.556190 0.633684 0.078320
0.582977 0.633684 0.078320
0.609248 0.633684 0.078320
0.628834 0.633684 0.078320
0.676047 0.660018 0.054815
0.699212 0.661896 0.056693
0.722348 0.663772 0.058569
0.745456 0.665646 0.060442
0.768538 0.667517 0.062314
0.791593 0.669387 0.064183
0.814624 0.671254 0.066051
0.837631 0.673120 0.067916
0.860615 0.674983 0.069780
0.864949 0.675335 0.070131
0.864949 0.675335 0.070131
0.080873 0.654339 0.080873
0.092704 0.654339 0.080873
0.121219 0.654339 0.080873
0.149439 0.654339 0.080873
0.177442 0.654339 0.080873
0.205273 0.654339 0.080873
0.232964 0.654339 0.080873
0.260535 0.654339 0.080873
0.288002 0.654339 0.080873
0.315376 0.654339 0.080873
0.342667 0.654339 0.080873
0.369884 0.654339 0.080873
0.397032 0.654339 0.080873
0.424117 0.654339 0.080873
0.451144 0.654339 0.080873
0.478117 0.654339 0.080873
0.505039 0.654339 0.080873
0.531913 0.654339 0.080873
0.558743 0.654339 0.080873
0.585529 0.654339 0.080873
0.611801 0.654339 0.080873
0.631387 0.654339 0.080873
0.650946 0.654339 0.080873
0.699212 0.681623 0.056693
0.722348 0.683499 0.058569
0.745456 0.685372 0.060442
0.768538 0.687244 0.062314
0.791593 0.689113 0.064183
0.814624 0.690981 0.066051
0.837631 0.692846 0.067916
0.860615 0.694710 0.069780
0.864949 0.695061 0.070131
0.864949 0.695061 0.070131
0.083428 0.675010 0.083428
0.095258 0.675010 0.083428
0.123774 0.675010 0.083428
0.151994 0.675010 0.083428
0.179997 0.675010 0.083428
0.207828 0.675010 0.083428
0.235519 0.675010 0.083428
0.263090 0.675010 0.083428
0.290557 0.675010 0.083428
0.317931 0.675010 0.083428
0.345222 0.675010 0.083428
0.372439 0.675010 0.083428
0.399587 0.675010 0.083428
0.426672 0.675010 0.083428
0.453699 0.675010 0.083428
0.480672 0.675010 0.083428
0.507594 0.675010 0.083428
0.534468 0.675010 0.083428
0.561298 0.675010 0.083428
0.588084 0.675010 0.083428
0.614355 0.675010 0.083428
0.633941 0.675010 0.083428
0.653501 0.675010 0.083428
0.673034 0.675010 0.083428
0.722348 0.703241 0.058569
0.745456 0.705115 0.060442
0.768538 0.706986 0.062314
0.791593 0.708856 0.064183
0.814624 0.710723 0.066051
0.837631 0.712589 0.067916
0.860615 0.714452 0.069780
0.864949 0.714804 0.070131
0.864949 0.714804 0.070131
0.085985 0.695698 0.085985
0.097815 0.695698 0.085985
0.126331 0.695698 0.085985
0.154551 0.695698 0.085985
0.182553 0.695698 0.085985
0.210385 0.695698 0.085985
0.238076 0.695698 0.085985
0.265647 0.695698 0.085985
0.293113 0.695698 0.085985
0.320488 0.695698 0.085985
0.347779 0.695698 0.085985
0.374996 0.695698 0.085985
0.402144 0.695698 0.085985
0.429229 0.695698 0.085985
0.456256 0.695698 0.085985
0.483229 0.695698 0.085985
0.510151 0.695698 0.085985
0.537025 0.695698 0.085985
0.563854 0.695698 0.085985
0.590641 0.695698 0.085985
0.616912 0.695698 0.085985
0.636498 0.695698 0.085985
0.656058 0.695698 0.085985
0.675591 0.695698 0.085985
0.695100 0.695698 0.085985
0.745456 0.724873 0.060442
0.768538 0.726744 0.062314
